X: 48
T: No_148_My_Music_Reaches_to_the_Sky.krn
N: Derived from No_148_My_Music_Reaches_to_the_Sky.krn
%%abc-version 2.0
%%abcx-abcm2ps-target-version 5.9.1 (29 Sep 2008)
%%abc-creator hum2abc beta
%%abcx-conversion-date 2019/03/15 08:29:13
%%humdrum-veritas 997984714
%%humdrum-veritas-data 3790080763
%%linebreak <none>
%%barnumbers 0
L: 1/8
M: 2/4
%%staves {1 2}
V: 1 clef=treble
V: 2 clef=bass
K: C
[V:1] G [I:setbarnb 1]| 
[V:2] G,, | 
[V:1] GG G3/A/ | 
[V:2] (3!accent!G,, z G,, (3!accent!G,, z G,, | 
[V:1] G7/E/ | 
[V:2] z4 | 
[V:1] G2E2 | 
[V:2] z4 | 
[V:1] ED CC | 
[V:2] z4 | 
[V:1] E3/D/C2 | 
[V:2] z4 | 
[V:1] C3C ||  
[V:2] z4 ||  
[V:1] [M:3/4]C4z G | 
[V:2] [M:3/4]z6 | 
[V:1] GG EE- EE/D/ | 
[V:2] z6 | 
[V:1] CC A,3/G,/ (3A,A,A, | 
[V:2] z6 | 
[V:1] A,4G,G,[K:clef=bass] | 
[V:2] z6 | 
[V:1] E,4A,A, ||  
[V:2] z6 ||  
[V:1] [M:2/4]A,G,G,2- | 
[V:2] [M:2/4]z4 | 
[V:1] G,2E,2 | 
[V:2] z4 | 
[V:1] G,E, E,3/D,/ | 
[V:2] z4 | 
[V:1] C,C,C,2 | 
[V:2] z4 | 
[V:1] C,4 |]  
[V:2] z4 |]  



